/* XPM */
static char * recipes_xpm[] = {
"200 200 2 1",
" 	c None",
".	c #000000",
"                                                                                                                                                                                                        ",
"                                                                                                                                                                                                        ",
"                                                                                                                                                                                                        ",
"                                                                                                                                                                                                        ",
"                                                                                                                                                                                                        ",
"                                                                                                                                                                                                        ",
"                                                                                                                                                                                                        ",
"                                                                                                                                                                                                        ",
"                                                                                                                                                                                                        ",
"                                                                                                                                                                                                        ",
"                                                                                                                                                                                                        ",
"                                                                                                                                                                                                        ",
"                                                                                                                                                                                                        ",
"                                                                                                                                                                                                        ",
"                                                                                                                                                                                                        ",
"                                                                                                                                                                                                        ",
"                                                                                                                                                                                                        ",
"                                                                                                                                                                                                        ",
"                                                                                                                                                                                                        ",
"                                                                                                                                                                                                        ",
"                                                                                                                                                                                                        ",
"                                                                                                                                                                                                        ",
"                                                                                                                                                                                                        ",
"                                                                                                                                                                                                        ",
"                                                                                                                                                                                                        ",
"                                                                                                                                                                                                        ",
"                                                                                                                                                                                                        ",
"                                                                                                                                                                                                        ",
"                                                                                                                                                                                                        ",
"                                                                                                                                                                                ........                ",
"                                                                                                                                                                             .............              ",
"                                                                                                                                                                          ..................            ",
"                                                                                                                                                                         ....................           ",
"                                                                                                                                                                       ......................           ",
"                                                                                                                                                                      ........................          ",
"                                                                                                                                                                    ............. ............          ",
"                                                                                                                                                                   ...........      ..........          ",
"                                                                                                                                                                  ...........       ..........          ",
"                                                                                                                                                                 ...........        ..........          ",
"                                                                                                                                                                ...........        ...........          ",
"                                                                                                                                                              .............        ..........           ",
"                                                                                                                                                             ..............      ............           ",
"                                                                                                                                                            ................. ..............            ",
"                                                                                                                                                           ................................             ",
"                                                                                                                                                          .................................             ",
"                                                                                                                                                         .................................              ",
"                                                                                                                                                        .................................               ",
"                                                                                                                                                       .................................                ",
"                                                                                                                                                      ................................                  ",
"                                                                                                                                                      ...............................                   ",
"                                                                                                                                                     ..............................                     ",
"                                                                                                                                                    ..............................                      ",
"                                                                                                                                                   .............................                        ",
"                                                                                                                                                  .............................                         ",
"                                                                                                                                                 ............................                           ",
"                                                                                                                                                ...........................                             ",
"                                                                                                                                               ...........................                              ",
"                                                                                                                                              ..........................                                ",
"                                                                                                                                             .........................                                  ",
"                                                                                                                                            .........................                                   ",
"                                                                                                                                          ..........................                                    ",
"                                                                                                                                         ..........................                                     ",
"                                                                                                                                       ...........................                                      ",
"                                                                                                                                     ............................                                       ",
"                                                                                                                                   .............................                                        ",
"                                                                                                                                 ...............................                                        ",
"                                                                                                                              .................................                                         ",
"                                                                            ..........................                         ................................                                         ",
"                                                                   ............................................                    ...........................                                          ",
"                                                             ........................................................                 ........................                                          ",
"                                                        ..................................................................               .....................                                          ",
"                                                   ...........................................................................              .................                                           ",
"                                                ..................................................................................             ..............                                           ",
"                                            .........................................................................................            ............                                           ",
"                                          ..............................................................................................           ..........                                           ",
"                                       ....................................................................................................          ........                                           ",
"                                    .........................................................................................................          ......                                           ",
"                                  .............................................................................................................          ....                                           ",
"                                .................................................................................................................         ...                                           ",
"                              .....................................................................................................................         .                                           ",
"                            .........................................................................................................................                                                   ",
"                           ............................................................................................................................                                                 ",
"                         ...............................................................................................................................                                                ",
"                       ...................................................................................................................................                                              ",
"                      .....................................................................................................................................                                             ",
"                     ........................................................................................................................................                                           ",
"                    ..........................................................................................................................................                                          ",
"                   ............................................................................................................................................                                         ",
"                  ..............................................................................................................................................                                        ",
"                 ................................................................................................................................................                                       ",
"                ..................................................................................................................................................                                      ",
"               ...................................................................................................................................................                                      ",
"              .....................................................................................................................................................                                     ",
"             .......................................................................................................................................................                                    ",
"             ........................................................................................................................................................                                   ",
"            .........................................................................................................................................................                                   ",
"            ............................................................                                  ............................................................                                  ",
"           ......................................................                                                 ....................................................                                  ",
"           .................................................                                                           ...............................................                                  ",
"           .............................................                                                                   ............................................                                 ",
"          ...........................................                   ..................................                    .........................................                                 ",
"          ........................................               ................................................                ......................................                                 ",
"          .....................................              .........................................................              ...................................                                 ",
"          ...................................            .................................................................            .................................                                 ",
"          .................................          ........................................................................            ..............................                                 ",
"          ...............................          .............................................................................           ............................                                 ",
"          .............................         ...................................................................................         ...........................                                 ",
"          ............................        .......................................................................................         .........................                                 ",
"          ..........................        ...........................................................................................         .......................                                 ",
"           ........................       ...............................................................................................        ......................                                 ",
"           .......................       ..................................................................................................       ....................                                  ",
"           ......................      ......................................................................................................       ..................                                  ",
"            ....................      ........................................................................................................       .................                                  ",
"            ...................      ..........................................................................................................       ...............                                   ",
"             .................     ..............................................................................................................      ..............                                   ",
"              ...............     ................................................................................................................      ............                                    ",
"              ..............     ..................................................................................................................      ..........                                     ",
"               ............     ....................................................................................................................     ..........                                     ",
"                ...........     .....................................................................................................................     ........                                      ",
"                 .........     .......................................................................................................................     ......                                       ",
"                  .......     .........................................................................................................................    .....      .                                 ",
"                   ......    ..........................................................................................................................     ...      ..                                 ",
"           ..       ....     ...........................................................................................................................     .      ..                                  ",
"           ...       ...    .............................................................................................................................          ...                                  ",
"            ...       .     .............................................................................................................................         ....                                  ",
"            ....           ...............................................................................................................................       .....                                  ",
"            .....          .............................................................................................................................        .....                                   ",
"            ......         ............................................................................................................................       .......                                   ",
"            .......         .........................................................................................................................        ........                                   ",
"             ........         .....................................................................................................................         .........                                   ",
"             .........          .................................................................................................................         ..........                                    ",
"             ...........          .............................................................................................................          ...........                                    ",
"              ...........           .........................................................................................................          .............                                    ",
"              .............           ....................................................................................................           ..............                                     ",
"              ...............            ...............................................................................................           ................                                     ",
"               ................             .........................................................................................            ..................                                     ",
"               ..................              ...................................................................................             ....................                                     ",
"                ....................               ...........................................................................              ......................                                      ",
"                ......................                 ...................................................................                ........................                                      ",
"                 ........................                   .........................................................                  ..........................                                       ",
"                  ...........................                    ..............................................                    ..............................                                       ",
"                  ..............................                          .............................                         ................................                                        ",
"                   ..................................                                                                      .....................................                                        ",
"                    ......................................                                                            .........................................                                         ",
"                     ...........................................                                                ...............................................                                         ",
"                     .....................................................                            ........................................................                                          ",
"                      .......................................................................................................................................                                           ",
"                       .....................................................................................................................................                                            ",
"                        ....................................................................................................................................                                            ",
"                         ..................................................................................................................................                                             ",
"                          ................................................................................................................................                                              ",
"                           ..............................................................................................................................                                               ",
"                            ............................................................................................................................                                                ",
"                              ........................................................................................................................                                                  ",
"                               ......................................................................................................................                                                   ",
"                                ....................................................................................................................                                                    ",
"                                  ................................................................................................................                                                      ",
"                                   ..............................................................................................................                                                       ",
"                                     ..........................................................................................................                                                         ",
"                                       ......................................................................................................                                                           ",
"                                        ....................................................................................................                                                            ",
"                                          ................................................................................................                                                              ",
"                                            ............................................................................................                                                                ",
"                                              .......................................................................................                                                                   ",
"                                                ...................................................................................                                                                     ",
"                                                   .............................................................................                                                                        ",
"                                                      .......................................................................                                                                           ",
"                                                          ...............................................................                                                                               ",
"                                                              .......................................................                                                                                   ",
"                                                                    ............................................                                                                                        ",
"                                                                           .............................                                                                                                ",
"                                                                                                                                                                                                        ",
"                                                                                                                                                                                                        ",
"                                                                                                                                                                                                        ",
"                                                                                                                                                                                                        ",
"                                                                                                                                                                                                        ",
"                                                                                                                                                                                                        ",
"                                                                                                                                                                                                        ",
"                                                                                                                                                                                                        ",
"                                                                                                                                                                                                        ",
"                                                                                                                                                                                                        ",
"                                                                                                                                                                                                        ",
"                                                                                                                                                                                                        ",
"                                                                                                                                                                                                        ",
"                                                                                                                                                                                                        ",
"                                                                                                                                                                                                        ",
"                                                                                                                                                                                                        ",
"                                                                                                                                                                                                        ",
"                                                                                                                                                                                                        ",
"                                                                                                                                                                                                        ",
"                                                                                                                                                                                                        ",
"                                                                                                                                                                                                        ",
"                                                                                                                                                                                                        ",
"                                                                                                                                                                                                        ",
"                                                                                                                                                                                                        ",
"                                                                                                                                                                                                        ",
"                                                                                                                                                                                                        ",
"                                                                                                                                                                                                        ",
"                                                                                                                                                                                                        ",
"                                                                                                                                                                                                        "};
